client/src/assets/images/icon-add.svg

<svg viewBox="0 0 64.988 69.024" xmlns="http://www.w3.org/2000/svg"><path d="m36.14 30.345h28.848v7.293h-28.848v31.386h-7.879v-31.386h-28.261v-7.293h28.261v-30.345h7.879z" fill="#808080"/></svg>

<svg xmlns="http://www.w3.org/2000/svg" viewBox="0 0 64.988 69.024"><defs><style>.a{fill:gray;}</style></defs><title>icon-add</title><path class="a" d="M36.14,30.345H64.988v7.293H36.14V69.024H28.261V37.638H0V30.345H28.261V0H36.14Z"/></svg>
